X:491
T: ACH SCHOENSTES KAROLINCHEN
N: E0447C
O: Europa, Mitteleuropa, Deutschland, Lahngegend, Nassau
R: Liebes - Lied
M: 6/8
L: 1/8
K: G
D | G2Bd2d | d3B2
B | A2ed2c | B3z3
G3e3 | d3-d2
d | edccde | d2BB2
d | dedd2c | B4z

